X: 7
T: The Queen Of The Rushes
R: jig
M: 6/8
L: 1/8
K: Dmix
|:A/G/|F2D D3|G2E E3|F2D D3|GED DAG|
F2D F2D|G2E E3|FAF GEA|D3 D2:||
|:c2A Bcd|ecA AGE|d2e f2d|ecA AGE|
c2A Bcd|ecA AGE|FAF GEA|D3 D3:||
|:F/G/|A3 dAF|A3 dAF|G3 EGE|GBG EFG|
A3 dAF| A3 dAG|FAF GEA|D3 D2


Tune 710	Setting 4848

